assets/aero/mono.svg

<svg viewBox="0 0 51.74 70" xmlns="http://www.w3.org/2000/svg"><path d="m0 24.81h51.74v-1.52c-.07-4.05-1.12-8.01-3.04-11.57l-.91-1.52h-43.84a3.1 3.1 0 0 0 -.91 1.52 25.1 25.1 0 0 0 -3.04 11.57zm0 0" fill="#c31a13"/><path d="m2.28 56.76.76 1.52c3.2 6.09 9.89 11.72 22.83 11.72s19.48-5.48 22.83-11.71l.61-1.52h-47.03zm0 0" fill="#fcbf2d"/><path d="m3.04 11.71h45.66c-3.35-6.08-10.05-11.71-22.83-11.71s-19.63 5.48-22.83 11.71m0 0" fill="#a2050d"/><path d="m0 35v13.24h51.74v-14.76h-51.74zm0 0" fill="#f86920"/><path d="m0 23.29h51.74v11.71h-51.74z" fill="#e22f19"/><path d="m3.04 58.29h45.66a25.16 25.16 0 0 0 3.04-11.57h-51.74c.07 4.05 1.12 8.01 3.04 11.57m0 0" fill="#fa9326"/></svg>

<svg xmlns="http://www.w3.org/2000/svg" xml:space="preserve" id="Layer_1" x="0" y="0" viewBox="0 0 51.74 70"><path d="M0 24.81h51.74v-1.52c-.07-4.05-1.12-8.01-3.04-11.57l-.91-1.52H3.95a3.1 3.1 0 0 0-.91 1.52A25.1 25.1 0 0 0 0 23.29zm0 0" fill="#c31a13"/><path d="m2.28 56.76.76 1.52C6.24 64.37 12.93 70 25.87 70s19.48-5.48 22.83-11.71l.61-1.52H2.28zm0 0" fill="#fcbf2d"/><path d="M3.04 11.71H48.7C45.35 5.63 38.65 0 25.87 0S6.24 5.48 3.04 11.71m0 0" fill="#a2050d"/><path d="M0 35v13.24h51.74V33.48H0zm0 0" fill="#f86920"/><path d="M0 23.29h51.74V35H0z" fill="#e22f19"/><path d="M3.04 58.29H48.7a25.16 25.16 0 0 0 3.04-11.57H0c.07 4.05 1.12 8.01 3.04 11.57m0 0" fill="#fa9326"/></svg>
